brandFactory_export/2.Regular/Archivo bloqueado_2Regular.svg

<?xml version="1.0" encoding="UTF-8"?>
<svg width="24px" height="24px" viewBox="0 0 24 24" version="1.1" xmlns="http://www.w3.org/2000/svg" xmlns:xlink="http://www.w3.org/1999/xlink">
    <title>2.Regular/Archivo bloqueado_2Regular</title>
    <g id="Symbols" stroke="none" stroke-width="1" fill="none" fill-rule="evenodd">
        <g id="2.Regular/Archivo-bloqueado_2Regular" fill="#5CB615" fill-rule="nonzero">
            <path d="M17.7579832,18.4621849 C18.5915966,18.4453782 18.5915966,17.810084 18.5915966,17.5714286 C18.5915966,17.3294118 18.5915966,16.6941176 17.7478992,16.6739496 L17.6168067,16.6739496 C16.8033613,16.6806723 16.8033613,17.3226891 16.8033613,17.5647059 C16.8033613,17.8067227 16.8033613,18.4521008 17.6336134,18.4655462 L17.7579832,18.4621849 L17.7579832,18.4621849 Z M17.7815126,15.2016807 C18.9210084,15.2285714 20.0638655,15.9714286 20.0638655,17.5714286 C20.0638655,19.1747899 18.9210084,19.9142857 17.7848739,19.9344538 L17.6235294,19.9344538 C16.4773109,19.9176471 15.3310924,19.1781513 15.3310924,17.5613445 C15.3310924,15.9445378 16.4739496,15.2084034 17.6033613,15.1983193 L17.7815126,15.2016807 L17.7815126,15.2016807 Z M4.03361345,9.75630252 C4.18151261,9.75630252 4.43361345,9.75630252 4.43361345,8.64369748 C4.43361345,7.52773109 4.18487395,7.52773109 4.03361345,7.52773109 C3.88235294,7.52773109 3.6302521,7.52773109 3.6302521,8.64369748 C3.6302521,9.75630252 3.87226891,9.75630252 4.03361345,9.75630252 Z M4.03361345,6.40504202 C4.73277311,6.40504202 5.56638655,6.79159664 5.56638655,8.64369748 C5.56638655,10.492437 4.73277311,10.8789916 4.03361345,10.8789916 C3.33109244,10.8789916 2.49747899,10.4890756 2.49747899,8.64369748 C2.49747899,6.79159664 3.33109244,6.40504202 4.03361345,6.40504202 Z M7.52605042,9.75630252 C7.67394958,9.75630252 7.92605042,9.75630252 7.92605042,8.64369748 C7.92605042,7.52773109 7.67731092,7.52773109 7.52605042,7.52773109 C7.37478992,7.52773109 7.12268908,7.52773109 7.12268908,8.64369748 C7.12268908,9.75630252 7.36470588,9.75630252 7.52605042,9.75630252 Z M7.52605042,6.40504202 C8.22521008,6.40504202 9.05882353,6.79159664 9.05882353,8.64369748 C9.05882353,10.492437 8.22521008,10.8789916 7.52605042,10.8789916 C6.82352941,10.8789916 5.98991597,10.4890756 5.98991597,8.64369748 C5.98991597,6.79159664 6.82352941,6.40504202 7.52605042,6.40504202 L7.52605042,6.40504202 Z M4.65210084,15.594958 C4.92436975,15.594958 5.14285714,15.8134454 5.14285714,16.0857143 L5.14285714,16.2134454 C5.14285714,16.4857143 4.92436975,16.7042017 4.65210084,16.7042017 L3.42521008,16.7042017 C3.15294118,16.7042017 2.93445378,16.4857143 2.93445378,16.2134454 L2.93445378,16.0857143 C2.93445378,15.8134454 3.15294118,15.594958 3.42521008,15.594958 L3.52605042,15.594958 L3.52605042,13.4504202 L3.46554622,13.4504202 C3.19327731,13.4504202 2.97478992,13.2319328 2.97478992,12.9596639 L2.97478992,12.8521008 C2.97478992,12.6 3.16638655,12.3882353 3.41848739,12.3647059 C3.64033613,12.3445378 3.84537815,12.3344538 3.92605042,12.3344538 C4.61176471,12.3344538 4.6487395,12.8789916 4.6487395,12.9865546 L4.65210084,15.594958 L4.65210084,15.594958 Z M7.52605042,15.6487395 C7.67394958,15.6487395 7.92605042,15.6487395 7.92605042,14.5361345 C7.92605042,13.4201681 7.67731092,13.4201681 7.52605042,13.4201681 C7.37478992,13.4201681 7.12268908,13.4201681 7.12268908,14.5361345 C7.12268908,15.6487395 7.36470588,15.6487395 7.52605042,15.6487395 Z M7.52605042,12.297479 C8.22521008,12.297479 9.05882353,12.6840336 9.05882353,14.5361345 C9.05882353,16.3848739 8.22521008,16.7714286 7.52605042,16.7714286 C6.82352941,16.7714286 5.98991597,16.3815126 5.98991597,14.5361345 C5.98991597,12.687395 6.82352941,12.297479 7.52605042,12.297479 L7.52605042,12.297479 Z M22.1411765,20.2033613 L22.1411765,17.4941176 C22.1411765,17.4739496 22.1310924,17.4672269 22.1310924,17.4436975 L22.1310924,14.1361345 C22.1210084,13.9882353 22.0705882,13.8033613 21.9260504,13.6453782 C21.7579832,13.4705882 21.4554622,13.3731092 21.0420168,13.3731092 L14.4369748,13.3831933 L14.3394958,13.3831933 C14.312605,13.3831933 14.2789916,13.3731092 14.2319328,13.3831933 C14.0672269,13.3831933 13.7008403,13.4235294 13.4857143,13.6184874 C13.3310924,13.7764706 13.2504202,14.0084034 13.2504202,14.3445378 L13.2504202,20.2235294 C13.2504202,20.2638655 13.2302521,20.6638655 13.4756303,20.9193277 C13.6537815,21.097479 13.9361345,21.1848739 14.3495798,21.1848739 L21.0420168,21.1848739 C21.2369748,21.194958 21.6605042,21.1647059 21.9058824,20.9294118 C22.0739496,20.7714286 22.1411765,20.5361345 22.1411765,20.2033613 Z M20.3731092,11.3294118 C20.3731092,9.11092437 18.8235294,8.74789916 17.8991597,8.71764706 L17.6033613,8.71764706 C16.6991597,8.72773109 15.1697479,9.07058824 15.1697479,11.3092437 L15.1697479,11.907563 L20.3697479,11.897479 L20.3697479,11.3294118 L20.3731092,11.3294118 Z M11.7781513,14.3411765 C11.7781513,13.389916 12.1714286,12.8285714 12.4941176,12.5260504 C12.8773109,12.1731092 13.3378151,12.0151261 13.7008403,11.9579832 L13.7008403,11.3092437 C13.7008403,8.33445378 15.8016807,7.26554622 17.5966387,7.24537815 L17.9294118,7.24537815 C19.7344538,7.29579832 21.8453782,8.38487395 21.8453782,11.3294118 L21.8453782,12.005042 C21.9428571,12.0252101 22.0403361,12.0453782 22.1310924,12.0823529 L22.1310924,5.37983193 C22.1310924,5.24201681 22.0235294,5.12436975 21.8756303,5.12436975 L11.307563,5.12436975 C10.9042017,5.12436975 10.5714286,4.79159664 10.5714286,4.38823529 L10.5714286,2.73781513 C10.5714286,2.58991597 10.4638655,2.48235294 10.3159664,2.48235294 L1.74117647,2.48235294 C1.59327731,2.48235294 1.47563025,2.58991597 1.47563025,2.73781513 L1.47563025,18.9428571 C1.47563025,19.0907563 1.59327731,19.1983193 1.74117647,19.1983193 L11.7781513,19.1983193 L11.7781513,16.6773109 C11.7277311,16.687395 11.6907563,16.707563 11.6302521,16.707563 L10.4033613,16.707563 C10.1277311,16.707563 9.91260504,16.4823529 9.91260504,16.2168067 L9.91260504,16.0890756 C9.91260504,15.8134454 10.1277311,15.5983193 10.4033613,15.5983193 L10.5008403,15.5983193 L10.5008403,13.4504202 L10.4403361,13.4504202 C10.1647059,13.4504202 9.94957983,13.2319328 9.94957983,12.9596639 L9.94957983,12.8521008 C9.94957983,12.5966387 10.1445378,12.3915966 10.389916,12.3613445 C10.6151261,12.3411765 10.8201681,12.3310924 10.9008403,12.3310924 C11.5865546,12.3310924 11.6268908,12.8823529 11.6268908,12.989916 L11.6268908,15.6016807 C11.6773109,15.6016807 11.7243697,15.6117647 11.7747899,15.6319328 L11.7747899,14.3411765 L11.7781513,14.3411765 Z M23.6033613,14.0184874 C23.6235294,14.2235294 23.6235294,14.3714286 23.6134454,14.4117647 L23.6134454,20.2033613 C23.6235294,21.1478992 23.2302521,21.7058824 22.907563,22.0117647 C22.1512605,22.7176471 21.102521,22.6705882 20.9848739,22.6571429 L14.3529412,22.6571429 C13.3142857,22.6571429 12.712605,22.2571429 12.4,21.9109244 C12.0168067,21.507563 11.8689076,21.0302521 11.8117647,20.6739496 L1.74117647,20.6739496 C0.779831933,20.6739496 0.00336134454,19.897479 0.00336134454,18.9462185 L0.00336134454,2.74117647 C0.00336134454,1.78655462 0.776470588,1.01344538 1.74117647,1.01344538 L10.3159664,1.01344538 C11.2672269,1.01344538 12.0436975,1.78655462 12.0436975,2.74117647 L12.0436975,3.65546218 L21.8756303,3.65546218 C22.8268908,3.65546218 23.6033613,4.43193277 23.6033613,5.38319328 L23.6033613,14.0184874 L23.6033613,14.0184874 Z" id="Archivo-bloqueado_2Regular"></path>
        </g>
    </g>
</svg>

<svg width="24" height="24" viewBox="0 0 24 24" xmlns="http://www.w3.org/2000/svg"><path d="M17.758 18.462c.834-.017.834-.652.834-.89 0-.243 0-.878-.844-.898h-.131c-.814.007-.814.649-.814.89 0 .243 0 .888.83.902l.125-.004zm.024-3.26c1.139.027 2.282.77 2.282 2.37 0 1.603-1.143 2.342-2.28 2.362h-.16c-1.147-.016-2.293-.756-2.293-2.373 0-1.616 1.143-2.353 2.272-2.363l.179.004zM4.034 9.756c.148 0 .4 0 .4-1.112 0-1.116-.25-1.116-.4-1.116-.152 0-.404 0-.404 1.116 0 1.112.242 1.112.404 1.112zm0-3.351c.699 0 1.532.387 1.532 2.239 0 1.848-.833 2.235-1.532 2.235-.703 0-1.537-.39-1.537-2.235 0-1.852.834-2.239 1.537-2.239zm3.492 3.351c.148 0 .4 0 .4-1.112 0-1.116-.249-1.116-.4-1.116-.151 0-.403 0-.403 1.116 0 1.112.242 1.112.403 1.112zm0-3.351c.7 0 1.533.387 1.533 2.239 0 1.848-.834 2.235-1.533 2.235-.702 0-1.536-.39-1.536-2.235 0-1.852.834-2.239 1.536-2.239zm-2.874 9.19a.49.49 0 01.49.49v.128a.49.49 0 01-.49.491H3.425a.49.49 0 01-.49-.49v-.128a.49.49 0 01.49-.491h.101V13.45h-.06a.49.49 0 01-.491-.49v-.108a.49.49 0 01.443-.487c.222-.02.427-.03.508-.03.686 0 .723.544.723.652l.003 2.608zm2.874.054c.148 0 .4 0 .4-1.113 0-1.116-.249-1.116-.4-1.116-.151 0-.403 0-.403 1.116 0 1.113.242 1.113.403 1.113zm0-3.352c.7 0 1.533.387 1.533 2.24 0 1.848-.834 2.234-1.533 2.234-.702 0-1.536-.39-1.536-2.235 0-1.849.834-2.239 1.536-2.239zm14.615 7.906v-2.709c0-.02-.01-.027-.01-.05v-3.308a.802.802 0 00-.205-.49c-.168-.175-.47-.273-.884-.273l-6.605.01h-.098c-.026 0-.06-.01-.107 0-.165 0-.531.04-.746.235-.155.158-.236.39-.236.727v5.879c0 .04-.02.44.226.695.178.178.46.266.874.266h6.692c.195.01.619-.02.864-.256.168-.158.235-.393.235-.726zm-1.768-8.874c0-2.218-1.55-2.581-2.474-2.611h-.296c-.904.01-2.433.353-2.433 2.591v.599l5.2-.01v-.569h.003zm-8.595 3.012c0-.951.393-1.512.716-1.815.383-.353.844-.51 1.207-.568v-.649c0-2.975 2.1-4.043 3.896-4.064h.332c1.805.05 3.916 1.14 3.916 4.084v.676c.098.02.195.04.286.077V5.38a.253.253 0 00-.255-.256H11.308a.74.74 0 01-.737-.736v-1.65a.247.247 0 00-.255-.256H1.741c-.148 0-.265.108-.265.256v16.205c0 .148.117.255.265.255h10.037v-2.52c-.05.01-.087.03-.148.03h-1.227a.491.491 0 01-.49-.491v-.128c0-.276.215-.49.49-.49h.098V13.45h-.06a.487.487 0 01-.491-.49v-.108c0-.255.195-.46.44-.49.225-.02.43-.03.51-.03.687 0 .727.55.727.658v2.612c.05 0 .097.01.148.03v-1.29h.003zm11.825-.323c.02.206.02.353.01.394v5.791c.01.945-.383 1.503-.705 1.809-.757.706-1.805.659-1.923.645h-6.632c-1.039 0-1.64-.4-1.953-.746a2.31 2.31 0 01-.588-1.237H1.742a1.734 1.734 0 01-1.739-1.728V2.741a1.73 1.73 0 011.738-1.728h8.575a1.73 1.73 0 011.728 1.728v.914h9.832c.95 0 1.727.777 1.727 1.728v8.635z" fill="#5CB615" fill-rule="nonzero"/></svg>
